www/images/espressocappuccinomachine/aw_btnCappuccino.svg

<svg xmlns="http://www.w3.org/2000/svg" viewBox="0 0 29 32.5" enable-background="new 0 0 29 32.5"><style type="text/css">.st0{fill:#FFFFFF;} .st1{fill:#231F20;}</style><path class="st0" d="M2.1 10.1s-.8 8.8 4.3 14.3h11.9c5.1-5.5 4.3-14.3 4.3-14.3h-20.5zM18.4 25.3h-12c-.2 0-.5-.1-.6-.3-5.3-5.8-4.5-14.6-4.5-15s.4-.8.8-.8h20.6c.4 0 .8.3.8.8 0 .4.8 9.2-4.5 15-.2.2-.4.3-.6.3zm-11.6-1.7h11.2c3.7-4.3 3.9-10.5 3.9-12.7h-19c0 2.2.2 8.4 3.9 12.7zM3.6 10l-.8-.4c.1-.2 2.2-4.4 9.7-4.4v.8c-6.9.1-8.9 3.8-8.9 4zM21.5 10c-.1-.2-2-4-8.9-4v-.8c7.5 0 9.6 4.2 9.7 4.4l-.8.4zM21.5 21.2l-1.3-1.1c.3-.4.9-.6 1.7-1 1.2-.5 2.8-1.2 4.4-2.8 1-1.1 1.4-2.3.9-3.3-.3-.7-.9-1.1-1.5-1.1-1.5 0-2.2 1.1-2.2 1.1l-1.5-.8c0-.1 1.1-2 3.7-2 1.3 0 2.5.8 3 2.1.7 1.7.2 3.6-1.3 5.1-1.8 1.9-3.7 2.7-5 3.2-.2.3-.8.5-.9.6z"/><path class="st1" d="M14.9 20.1c-.3.1-.9.3-1.7.3-2.3 0-3.5-1.5-3.5-3.4 0-2.3 1.6-3.6 3.7-3.6.8 0 1.4.2 1.7.3l-.4 1.2c-.3-.1-.7-.3-1.3-.3-1.2 0-2.1.7-2.1 2.3 0 1.4.8 2.2 2.2 2.2.5 0 1-.1 1.3-.2l.1 1.2z"/></svg>

<?xml version="1.0" encoding="utf-8"?>
<!-- Generator: Adobe Illustrator 20.1.0, SVG Export Plug-In . SVG Version: 6.00 Build 0)  -->
<svg version="1.1" id="Layer_1" xmlns="http://www.w3.org/2000/svg" xmlns:xlink="http://www.w3.org/1999/xlink" x="0px" y="0px"
	 viewBox="0 0 29 32.5" style="enable-background:new 0 0 29 32.5;" xml:space="preserve">
<style type="text/css">
	.st0{fill:#FFFFFF;}
	.st1{fill:#231F20;}
</style>
<g>
	<g>
		<path class="st0" d="M2.1,10.1c0,0-0.8,8.8,4.3,14.3h11.9c5.1-5.5,4.3-14.3,4.3-14.3S2.1,10.1,2.1,10.1z"/>
		<path class="st0" d="M18.4,25.3h-12c-0.2,0-0.5-0.1-0.6-0.3c-5.3-5.8-4.5-14.6-4.5-15s0.4-0.8,0.8-0.8h20.6c0.4,0,0.8,0.3,0.8,0.8
			c0,0.4,0.8,9.2-4.5,15C18.8,25.2,18.6,25.3,18.4,25.3z M6.8,23.6H18c3.7-4.3,3.9-10.5,3.9-12.7h-19C2.9,13.1,3.1,19.3,6.8,23.6z"
			/>
	</g>
	<path class="st0" d="M3.6,10L2.8,9.6C2.9,9.4,5,5.2,12.5,5.2V6C5.6,6.1,3.6,9.8,3.6,10z"/>
	<path class="st0" d="M21.5,10c-0.1-0.2-2-4-8.9-4V5.2c7.5,0,9.6,4.2,9.7,4.4L21.5,10z"/>
	<path class="st0" d="M21.5,21.2l-1.3-1.1c0.3-0.4,0.9-0.6,1.7-1c1.2-0.5,2.8-1.2,4.4-2.8c1-1.1,1.4-2.3,0.9-3.3
		c-0.3-0.7-0.9-1.1-1.5-1.1c-1.5,0-2.2,1.1-2.2,1.1L22,12.2c0-0.1,1.1-2,3.7-2c1.3,0,2.5,0.8,3,2.1c0.7,1.7,0.2,3.6-1.3,5.1
		c-1.8,1.9-3.7,2.7-5,3.2C22.2,20.9,21.6,21.1,21.5,21.2z"/>
	<g>
		<path class="st1" d="M14.9,20.1c-0.3,0.1-0.9,0.3-1.7,0.3c-2.3,0-3.5-1.5-3.5-3.4c0-2.3,1.6-3.6,3.7-3.6c0.8,0,1.4,0.2,1.7,0.3
			l-0.4,1.2c-0.3-0.1-0.7-0.3-1.3-0.3c-1.2,0-2.1,0.7-2.1,2.3c0,1.4,0.8,2.2,2.2,2.2c0.5,0,1-0.1,1.3-0.2L14.9,20.1z"/>
	</g>
</g>
</svg>
